ES1T1/13/aimg/b8.svg

<svg clip-rule="evenodd" fill-rule="evenodd" stroke-linejoin="round" stroke-miterlimit="2" viewBox="0 0 156 224" xmlns="http://www.w3.org/2000/svg" xmlns:xlink="http://www.w3.org/1999/xlink"><linearGradient id="a" gradientTransform="matrix(1 0 0 -1 0 .001474)" gradientUnits="userSpaceOnUse" x1="0" x2="1" y1="0" y2="0"><stop offset="0" stop-color="#3075bb"/><stop offset="1" stop-color="#2562ae"/></linearGradient><linearGradient id="b" gradientTransform="matrix(1 0 0 -1 0 .001474)" gradientUnits="userSpaceOnUse" x1="0" x2="1" y1="0" y2="0"><stop offset="0" stop-color="#0098d9"/><stop offset="1" stop-color="#1783c6"/></linearGradient><linearGradient id="c" gradientTransform="matrix(1 0 0 -1 0 .001487)" gradientUnits="userSpaceOnUse" x1="0" x2="1" y1="0" y2="0"><stop offset="0" stop-color="#5fccf6"/><stop offset="1" stop-color="#3075bb"/></linearGradient><linearGradient id="d" gradientTransform="matrix(1 0 0 -1 0 .002619)" gradientUnits="userSpaceOnUse" x1="0" x2="1" y1="0" y2="0"><stop offset="0" stop-color="#1b81c4"/><stop offset="1" stop-color="#2562ae"/></linearGradient><linearGradient id="e"><stop offset="0" stop-color="#d6e1e2"/><stop offset="1" stop-color="#a8bfbd"/></linearGradient><linearGradient id="f" gradientTransform="matrix(1 0 0 -1 0 .002618)" gradientUnits="userSpaceOnUse" x1="0" x2="1" xlink:href="#e" y1="0" y2="0"/><linearGradient id="g" gradientTransform="matrix(1 0 0 -1 0 .002619)" gradientUnits="userSpaceOnUse" x1="0" x2="1" xlink:href="#e" y1="0" y2="0"/><linearGradient id="h" gradientTransform="matrix(1 0 0 -1 0 .001004)" gradientUnits="userSpaceOnUse" x1="0" x2="1" y1="0" y2="0"><stop offset="0" stop-color="#fff"/><stop offset="1" stop-color="#dde6e6"/></linearGradient><g fill-rule="nonzero"><path d="m0 .12.013-.253c.006-.119.092-.207.205-.21l.556-.016c.059-.002.115.019.155.059.046.044.071.109.071.182s-.027.136-.077.178c-.048.041-.11.057-.175.046l-.086-.015-.001.006c-.016.093-.081.15-.168.15-.042 0-.087-.016-.119-.055-.012.117-.099.17-.18.17-.093 0-.194-.07-.194-.223 0-.006 0-.012 0-.019z" fill="url(#a)" transform="matrix(0 214.133 214.133 0 77.72 9.81)"/><path d="m.001.12.012-.253c.006-.119.092-.207.205-.21l.556-.016c.059-.002.115.019.155.059.046.044.071.109.071.182s-.027.136-.077.178c-.048.041-.11.057-.175.046l-.086-.015-.001.006c-.016.093-.081.15-.168.15-.042 0-.087-.016-.119-.055-.012.117-.099.17-.18.17-.093 0-.194-.07-.194-.223 0-.006 0-.012.001-.019z" fill="url(#b)" transform="matrix(0 214.133 214.133 0 77.72 .82)"/><path d="m.001.122.012-.256c.006-.117.091-.205.203-.207l.56-.017c.059-.001.114.019.154.058.045.044.07.109.07.181s-.027.135-.076.177c-.047.039-.109.055-.173.045l-.091-.016-.002.01c-.016.091-.079.148-.165.148-.044 0-.091-.018-.123-.063-.008.123-.096.179-.179.179-.092 0-.191-.069-.191-.221 0-.006 0-.012.001-.018z" fill="url(#c)" transform="matrix(0 212.347 212.347 0 77.72 .82)"/><path d="m0 .154.016-.311c.004-.085.063-.147.141-.149l.682-.02c.1-.003.161.076.161.182 0 .116-.081.179-.177.163l-.216-.036-.021.117c-.012.071-.054.091-.094.091-.047 0-.082-.03-.089-.117l-.01-.126-.197-.033.035.248c.017.121-.043.169-.106.169-.061 0-.125-.043-.125-.16 0-.006 0-.012 0-.018z" fill="url(#d)" transform="matrix(0 174.624 174.624 0 77.58 24.17)"/><path d="m0 .154.016-.311c.004-.085.063-.147.142-.149l.681-.02c.1-.003.161.076.161.182 0 .116-.082.179-.177.163l-.216-.036-.021.117c-.012.071-.054.091-.094.091-.047 0-.082-.03-.089-.117l-.01-.126-.197-.033.035.248c.017.121-.043.169-.106.169-.061 0-.125-.043-.125-.16 0-.006 0-.012 0-.018z" fill="url(#f)" transform="matrix(0 174.637 174.637 0 77.58 21.47)"/><g fill="url(#g)"><path d="m0 .154.016-.311c.004-.085.063-.147.141-.149l.682-.02c.1-.003.161.076.161.182 0 .116-.082.179-.177.163l-.216-.036-.021.117c-.012.071-.054.091-.094.091-.047 0-.082-.03-.089-.117l-.01-.126-.197-.033.035.248c.017.121-.043.169-.106.169-.061 0-.125-.043-.125-.16 0-.006 0-.012 0-.018z" transform="matrix(0 174.626 174.626 0 77.58 20.58)"/><path d="m0 .154.016-.311c.004-.085.063-.147.141-.149l.682-.02c.1-.003.161.076.161.182 0 .116-.081.179-.177.163l-.216-.036-.021.117c-.012.071-.054.091-.094.091-.047 0-.082-.03-.089-.117l-.01-.126-.197-.033.035.248c.017.121-.043.169-.106.169-.061 0-.125-.043-.125-.16 0-.006 0-.012 0-.018z" transform="matrix(0 174.618 174.618 0 77.58 19.68)"/><path d="m0 .154.016-.311c.004-.085.063-.147.141-.149l.682-.02c.1-.003.161.076.161.182 0 .116-.081.179-.177.163l-.216-.036-.021.117c-.012.071-.054.091-.094.091-.047 0-.082-.03-.089-.117l-.01-.126-.197-.033.035.248c.017.121-.043.169-.106.169-.061 0-.125-.043-.125-.16 0-.006 0-.012 0-.018z" transform="matrix(0 174.619 174.619 0 77.58 18.79)"/><path d="m0 .154.016-.311c.004-.085.063-.147.141-.149l.682-.02c.1-.003.161.076.161.182 0 .116-.082.179-.177.163l-.216-.036-.021.117c-.012.071-.054.091-.094.091-.047 0-.082-.03-.089-.117l-.01-.126-.197-.033.035.248c.017.121-.043.169-.106.169-.061 0-.125-.043-.125-.16 0-.006 0-.012 0-.018z" transform="matrix(0 174.619 174.619 0 77.58 17.89)"/><path d="m0 .154.016-.311c.004-.085.063-.147.142-.149l.681-.02c.1-.003.161.076.161.182 0 .116-.081.179-.177.163l-.216-.036-.021.117c-.012.071-.054.091-.094.091-.047 0-.082-.03-.089-.117l-.01-.126-.197-.033.035.248c.017.121-.043.169-.106.169-.061 0-.125-.043-.125-.16 0-.006 0-.012 0-.018z" transform="matrix(0 174.624 174.624 0 77.58 16.99)"/></g><path d="m0 .172v-.018l.016-.311c.004-.085.063-.147.142-.149l.681-.02c.1-.003.161.076.161.182 0 .116-.082.179-.177.163l-.216-.036-.021.117c-.012.071-.054.091-.094.091-.047 0-.082-.03-.089-.117l-.01-.126-.197-.033.035.248c.017.121-.043.169-.106.169-.061 0-.125-.043-.125-.16z" fill="url(#f)" transform="matrix(0 174.63 174.63 0 77.58 16.09)"/><g fill="url(#g)"><path d="m0 .154.016-.311c.004-.085.063-.147.141-.149l.682-.02c.1-.003.161.076.161.182 0 .116-.082.179-.177.163l-.216-.036-.021.117c-.012.071-.054.091-.095.091-.046 0-.081-.03-.088-.117l-.01-.126-.197-.033.035.248c.017.121-.043.169-.106.169-.061 0-.125-.043-.125-.16 0-.006 0-.012 0-.018z" transform="matrix(0 174.626 174.626 0 77.58 15.2)"/><path d="m0 .154.016-.311c.004-.085.063-.147.142-.149l.681-.02c.1-.003.161.076.161.182 0 .116-.082.179-.177.163l-.216-.036-.021.117c-.012.071-.054.091-.094.091-.047 0-.082-.03-.089-.117l-.01-.126-.197-.033.035.248c.017.121-.043.169-.106.169-.061 0-.125-.043-.125-.16 0-.006 0-.012 0-.018z" transform="matrix(0 174.625 174.625 0 77.58 14.3)"/><path d="m0 .154.016-.311c.004-.085.063-.147.141-.149l.682-.02c.1-.003.161.076.161.182 0 .116-.081.179-.177.163l-.216-.036-.021.117c-.012.071-.054.091-.094.091-.047 0-.082-.03-.089-.117l-.01-.126-.197-.033.035.248c.017.121-.043.169-.106.169-.061 0-.125-.043-.125-.16 0-.006 0-.012 0-.018z" transform="matrix(0 174.619 174.619 0 77.58 13.4)"/></g><path d="m0-31.19c0 2.658-1.989 5.178-7.085 4.45l-10.388-1.483 1.371 8.289 5.293.419c3.641.279 4.901 1.765 4.901 3.695 0 1.707-.841 3.444-3.809 3.979l-4.9.867 1.513 9.042c.671 4.006-1.962 7.421-6.833 7.421-4.425 0-7.757-2.547-7.645-6.747l.84-28.562c.084-3.302 2.716-5.768 6.274-5.937l13.02-.643c5.459-.279 7.448 2.521 7.448 5.21" fill="#fff" transform="matrix(4.16667 0 0 4.16667 135.51 165.15)"/><path d="m0 .16.017-.324c.003-.078.055-.134.126-.136l.711-.021c.039-.001.072.012.098.036.031.031.048.078.048.133 0 .052-.017.095-.049.122-.029.024-.068.034-.111.027l-.225-.038c-.011-.002-.022.006-.024.018l-.022.122c-.009.052-.035.077-.078.077-.017 0-.063 0-.07-.102l-.011-.132c-.001-.01-.008-.018-.018-.02l-.206-.034c-.007-.001-.014.001-.018.006-.005.004-.007.01-.007.015v.003l.037.259c.002.014.003.027.003.039 0 .071-.034.113-.092.113-.026 0-.109-.011-.109-.146 0-.005 0-.011 0-.017z" fill="url(#h)" transform="matrix(0 167.438 167.438 0 77.87 18.79)"/></g></svg>

<?xml version="1.0" encoding="UTF-8" standalone="no"?>
<!DOCTYPE svg PUBLIC "-//W3C//DTD SVG 1.1//EN" "http://www.w3.org/Graphics/SVG/1.1/DTD/svg11.dtd">
<svg width="100%" height="100%" viewBox="0 0 156 224" version="1.1" xmlns="http://www.w3.org/2000/svg" xmlns:xlink="http://www.w3.org/1999/xlink" xml:space="preserve" xmlns:serif="http://www.serif.com/" style="fill-rule:evenodd;clip-rule:evenodd;stroke-linejoin:round;stroke-miterlimit:2;">
    <g transform="matrix(1,0,0,1,-1155,-1113)">
        <g>
            <g transform="matrix(0,214.133,214.133,0,1232.72,1122.81)">
                <path d="M0,0.12L0.013,-0.133C0.019,-0.252 0.105,-0.34 0.218,-0.343L0.774,-0.359C0.833,-0.361 0.889,-0.34 0.929,-0.3C0.975,-0.256 1,-0.191 1,-0.118C1,-0.045 0.973,0.018 0.923,0.06C0.875,0.101 0.813,0.117 0.748,0.106L0.662,0.091L0.661,0.097C0.645,0.19 0.58,0.247 0.493,0.247C0.451,0.247 0.406,0.231 0.374,0.192C0.362,0.309 0.275,0.362 0.194,0.362C0.101,0.362 0,0.292 0,0.139C0,0.133 0,0.127 0,0.12Z" style="fill:url(#_Linear1);fill-rule:nonzero;"/>
            </g>
            <g transform="matrix(0,214.133,214.133,0,1232.72,1113.82)">
                <path d="M0.001,0.12L0.013,-0.133C0.019,-0.252 0.105,-0.34 0.218,-0.343L0.774,-0.359C0.833,-0.361 0.889,-0.34 0.929,-0.3C0.975,-0.256 1,-0.191 1,-0.118C1,-0.045 0.973,0.018 0.923,0.06C0.875,0.101 0.813,0.117 0.748,0.106L0.662,0.091L0.661,0.097C0.645,0.19 0.58,0.247 0.493,0.247C0.451,0.247 0.406,0.231 0.374,0.192C0.362,0.309 0.275,0.362 0.194,0.362C0.101,0.362 0,0.292 0,0.139C0,0.133 0,0.127 0.001,0.12Z" style="fill:url(#_Linear2);fill-rule:nonzero;"/>
            </g>
            <g transform="matrix(0,212.347,212.347,0,1232.72,1113.82)">
                <path d="M0.001,0.122L0.013,-0.134C0.019,-0.251 0.104,-0.339 0.216,-0.341L0.776,-0.358C0.835,-0.359 0.89,-0.339 0.93,-0.3C0.975,-0.256 1,-0.191 1,-0.119C1,-0.047 0.973,0.016 0.924,0.058C0.877,0.097 0.815,0.113 0.751,0.103L0.66,0.087L0.658,0.097C0.642,0.188 0.579,0.245 0.493,0.245C0.449,0.245 0.402,0.227 0.37,0.182C0.362,0.305 0.274,0.361 0.191,0.361C0.099,0.361 0,0.292 0,0.14C0,0.134 0,0.128 0.001,0.122Z" style="fill:url(#_Linear3);fill-rule:nonzero;"/>
            </g>
            <g transform="matrix(0,174.624,174.624,0,1232.58,1137.17)">
                <path d="M0,0.154L0.016,-0.157C0.02,-0.242 0.079,-0.304 0.157,-0.306L0.839,-0.326C0.939,-0.329 1,-0.25 1,-0.144C1,-0.028 0.919,0.035 0.823,0.019L0.607,-0.017L0.586,0.1C0.574,0.171 0.532,0.191 0.492,0.191C0.445,0.191 0.41,0.161 0.403,0.074L0.393,-0.052L0.196,-0.085L0.231,0.163C0.248,0.284 0.188,0.332 0.125,0.332C0.064,0.332 0,0.289 0,0.172C0,0.166 0,0.16 0,0.154Z" style="fill:url(#_Linear4);fill-rule:nonzero;"/>
            </g>
            <g transform="matrix(0,174.637,174.637,0,1232.58,1134.47)">
                <path d="M0,0.154L0.016,-0.157C0.02,-0.242 0.079,-0.304 0.158,-0.306L0.839,-0.326C0.939,-0.329 1,-0.25 1,-0.144C1,-0.028 0.918,0.035 0.823,0.019L0.607,-0.017L0.586,0.1C0.574,0.171 0.532,0.191 0.492,0.191C0.445,0.191 0.41,0.161 0.403,0.074L0.393,-0.052L0.196,-0.085L0.231,0.163C0.248,0.284 0.188,0.332 0.125,0.332C0.064,0.332 0,0.289 0,0.172C0,0.166 0,0.16 0,0.154Z" style="fill:url(#_Linear5);fill-rule:nonzero;"/>
            </g>
            <g transform="matrix(0,174.626,174.626,0,1232.58,1133.58)">
                <path d="M0,0.154L0.016,-0.157C0.02,-0.242 0.079,-0.304 0.157,-0.306L0.839,-0.326C0.939,-0.329 1,-0.25 1,-0.144C1,-0.028 0.918,0.035 0.823,0.019L0.607,-0.017L0.586,0.1C0.574,0.171 0.532,0.191 0.492,0.191C0.445,0.191 0.41,0.161 0.403,0.074L0.393,-0.052L0.196,-0.085L0.231,0.163C0.248,0.284 0.188,0.332 0.125,0.332C0.064,0.332 0,0.289 0,0.172C0,0.166 0,0.16 0,0.154Z" style="fill:url(#_Linear6);fill-rule:nonzero;"/>
            </g>
            <g transform="matrix(0,174.618,174.618,0,1232.58,1132.68)">
                <path d="M0,0.154L0.016,-0.157C0.02,-0.242 0.079,-0.304 0.157,-0.306L0.839,-0.326C0.939,-0.329 1,-0.25 1,-0.144C1,-0.028 0.919,0.035 0.823,0.019L0.607,-0.017L0.586,0.1C0.574,0.171 0.532,0.191 0.492,0.191C0.445,0.191 0.41,0.161 0.403,0.074L0.393,-0.052L0.196,-0.085L0.231,0.163C0.248,0.284 0.188,0.332 0.125,0.332C0.064,0.332 0,0.289 0,0.172C0,0.166 0,0.16 0,0.154Z" style="fill:url(#_Linear7);fill-rule:nonzero;"/>
            </g>
            <g transform="matrix(0,174.619,174.619,0,1232.58,1131.79)">
                <path d="M0,0.154L0.016,-0.157C0.02,-0.242 0.079,-0.304 0.157,-0.306L0.839,-0.326C0.939,-0.329 1,-0.25 1,-0.144C1,-0.028 0.919,0.035 0.823,0.019L0.607,-0.017L0.586,0.1C0.574,0.171 0.532,0.191 0.492,0.191C0.445,0.191 0.41,0.161 0.403,0.074L0.393,-0.052L0.196,-0.085L0.231,0.163C0.248,0.284 0.188,0.332 0.125,0.332C0.064,0.332 0,0.289 0,0.172C0,0.166 0,0.16 0,0.154Z" style="fill:url(#_Linear8);fill-rule:nonzero;"/>
            </g>
            <g transform="matrix(0,174.619,174.619,0,1232.58,1130.89)">
                <path d="M0,0.154L0.016,-0.157C0.02,-0.242 0.079,-0.304 0.157,-0.306L0.839,-0.326C0.939,-0.329 1,-0.25 1,-0.144C1,-0.028 0.918,0.035 0.823,0.019L0.607,-0.017L0.586,0.1C0.574,0.171 0.532,0.191 0.492,0.191C0.445,0.191 0.41,0.161 0.403,0.074L0.393,-0.052L0.196,-0.085L0.231,0.163C0.248,0.284 0.188,0.332 0.125,0.332C0.064,0.332 0,0.289 0,0.172C0,0.166 0,0.16 0,0.154Z" style="fill:url(#_Linear9);fill-rule:nonzero;"/>
            </g>
            <g transform="matrix(0,174.624,174.624,0,1232.58,1129.99)">
                <path d="M0,0.154L0.016,-0.157C0.02,-0.242 0.079,-0.304 0.158,-0.306L0.839,-0.326C0.939,-0.329 1,-0.25 1,-0.144C1,-0.028 0.919,0.035 0.823,0.019L0.607,-0.017L0.586,0.1C0.574,0.171 0.532,0.191 0.492,0.191C0.445,0.191 0.41,0.161 0.403,0.074L0.393,-0.052L0.196,-0.085L0.231,0.163C0.248,0.284 0.188,0.332 0.125,0.332C0.064,0.332 0,0.289 0,0.172C0,0.166 0,0.16 0,0.154Z" style="fill:url(#_Linear10);fill-rule:nonzero;"/>
            </g>
            <g transform="matrix(0,174.63,174.63,0,1232.58,1129.09)">
                <path d="M0,0.172L0,0.154L0.016,-0.157C0.02,-0.242 0.079,-0.304 0.158,-0.306L0.839,-0.326C0.939,-0.329 1,-0.25 1,-0.144C1,-0.028 0.918,0.035 0.823,0.019L0.607,-0.017L0.586,0.1C0.574,0.171 0.532,0.191 0.492,0.191C0.445,0.191 0.41,0.161 0.403,0.074L0.393,-0.052L0.196,-0.085L0.231,0.163C0.248,0.284 0.188,0.332 0.125,0.332C0.064,0.332 0,0.289 0,0.172Z" style="fill:url(#_Linear11);fill-rule:nonzero;"/>
            </g>
            <g transform="matrix(0,174.626,174.626,0,1232.58,1128.2)">
                <path d="M0,0.154L0.016,-0.157C0.02,-0.242 0.079,-0.304 0.157,-0.306L0.839,-0.326C0.939,-0.329 1,-0.25 1,-0.144C1,-0.028 0.918,0.035 0.823,0.019L0.607,-0.017L0.586,0.1C0.574,0.171 0.532,0.191 0.491,0.191C0.445,0.191 0.41,0.161 0.403,0.074L0.393,-0.052L0.196,-0.085L0.231,0.163C0.248,0.284 0.188,0.332 0.125,0.332C0.064,0.332 0,0.289 0,0.172C0,0.166 0,0.16 0,0.154Z" style="fill:url(#_Linear12);fill-rule:nonzero;"/>
            </g>
            <g transform="matrix(0,174.625,174.625,0,1232.58,1127.3)">
                <path d="M0,0.154L0.016,-0.157C0.02,-0.242 0.079,-0.304 0.158,-0.306L0.839,-0.326C0.939,-0.329 1,-0.25 1,-0.144C1,-0.028 0.918,0.035 0.823,0.019L0.607,-0.017L0.586,0.1C0.574,0.171 0.532,0.191 0.492,0.191C0.445,0.191 0.41,0.161 0.403,0.074L0.393,-0.052L0.196,-0.085L0.231,0.163C0.248,0.284 0.188,0.332 0.125,0.332C0.064,0.332 0,0.289 0,0.172C0,0.166 0,0.16 0,0.154Z" style="fill:url(#_Linear13);fill-rule:nonzero;"/>
            </g>
            <g transform="matrix(0,174.619,174.619,0,1232.58,1126.4)">
                <path d="M0,0.154L0.016,-0.157C0.02,-0.242 0.079,-0.304 0.157,-0.306L0.839,-0.326C0.939,-0.329 1,-0.25 1,-0.144C1,-0.028 0.919,0.035 0.823,0.019L0.607,-0.017L0.586,0.1C0.574,0.171 0.532,0.191 0.492,0.191C0.445,0.191 0.41,0.161 0.403,0.074L0.393,-0.052L0.196,-0.085L0.231,0.163C0.248,0.284 0.188,0.332 0.125,0.332C0.064,0.332 0,0.289 0,0.172C0,0.166 0,0.16 0,0.154Z" style="fill:url(#_Linear14);fill-rule:nonzero;"/>
            </g>
            <g transform="matrix(4.16667,0,0,4.16667,1290.51,1278.15)">
                <path d="M0,-31.19C0,-28.532 -1.989,-26.012 -7.085,-26.74L-17.473,-28.223L-16.102,-19.934L-10.809,-19.515C-7.168,-19.236 -5.908,-17.75 -5.908,-15.82C-5.908,-14.113 -6.749,-12.376 -9.717,-11.841L-14.617,-10.974L-13.104,-1.932C-12.433,2.074 -15.066,5.489 -19.937,5.489C-24.362,5.489 -27.694,2.942 -27.582,-1.258L-26.742,-29.82C-26.658,-33.122 -24.026,-35.588 -20.468,-35.757L-7.448,-36.4C-1.989,-36.679 0,-33.879 0,-31.19" style="fill:white;fill-rule:nonzero;"/>
            </g>
            <g transform="matrix(0,167.438,167.438,0,1232.87,1131.79)">
                <path d="M0,0.16L0.017,-0.164C0.02,-0.242 0.072,-0.298 0.143,-0.3L0.854,-0.321C0.893,-0.322 0.926,-0.309 0.952,-0.285C0.983,-0.254 1,-0.207 1,-0.152C1,-0.1 0.983,-0.057 0.951,-0.03C0.922,-0.006 0.883,0.004 0.84,-0.003L0.615,-0.041C0.604,-0.043 0.593,-0.035 0.591,-0.023L0.569,0.099C0.56,0.151 0.534,0.176 0.491,0.176C0.474,0.176 0.428,0.176 0.421,0.074L0.41,-0.058C0.409,-0.068 0.402,-0.076 0.392,-0.078L0.186,-0.112C0.179,-0.113 0.172,-0.111 0.168,-0.106C0.163,-0.102 0.161,-0.096 0.161,-0.091C0.161,-0.09 0.161,-0.089 0.161,-0.088L0.198,0.171C0.2,0.185 0.201,0.198 0.201,0.21C0.201,0.281 0.167,0.323 0.109,0.323C0.083,0.323 0,0.312 0,0.177C0,0.172 0,0.166 0,0.16Z" style="fill:url(#_Linear15);fill-rule:nonzero;"/>
            </g>
        </g>
    </g>
    <defs>
        <linearGradient id="_Linear1" x1="0" y1="0" x2="1" y2="0" gradientUnits="userSpaceOnUse" gradientTransform="matrix(1,0,0,-1,0,0.00147386)"><stop offset="0" style="stop-color:rgb(48,117,187);stop-opacity:1"/><stop offset="1" style="stop-color:rgb(37,98,174);stop-opacity:1"/></linearGradient>
        <linearGradient id="_Linear2" x1="0" y1="0" x2="1" y2="0" gradientUnits="userSpaceOnUse" gradientTransform="matrix(1,0,0,-1,0,0.00147386)"><stop offset="0" style="stop-color:rgb(0,152,217);stop-opacity:1"/><stop offset="1" style="stop-color:rgb(23,131,198);stop-opacity:1"/></linearGradient>
        <linearGradient id="_Linear3" x1="0" y1="0" x2="1" y2="0" gradientUnits="userSpaceOnUse" gradientTransform="matrix(1,0,0,-1,0,0.00148688)"><stop offset="0" style="stop-color:rgb(95,204,246);stop-opacity:1"/><stop offset="1" style="stop-color:rgb(48,117,187);stop-opacity:1"/></linearGradient>
        <linearGradient id="_Linear4" x1="0" y1="0" x2="1" y2="0" gradientUnits="userSpaceOnUse" gradientTransform="matrix(1,0,0,-1,0,0.00261859)"><stop offset="0" style="stop-color:rgb(27,129,196);stop-opacity:1"/><stop offset="1" style="stop-color:rgb(37,98,174);stop-opacity:1"/></linearGradient>
        <linearGradient id="_Linear5" x1="0" y1="0" x2="1" y2="0" gradientUnits="userSpaceOnUse" gradientTransform="matrix(1,0,0,-1,0,0.0026184)"><stop offset="0" style="stop-color:rgb(214,225,226);stop-opacity:1"/><stop offset="0" style="stop-color:rgb(214,225,226);stop-opacity:1"/><stop offset="1" style="stop-color:rgb(168,191,189);stop-opacity:1"/></linearGradient>
        <linearGradient id="_Linear6" x1="0" y1="0" x2="1" y2="0" gradientUnits="userSpaceOnUse" gradientTransform="matrix(1,0,0,-1,0,0.00261855)"><stop offset="0" style="stop-color:rgb(214,225,226);stop-opacity:1"/><stop offset="0" style="stop-color:rgb(214,225,226);stop-opacity:1"/><stop offset="1" style="stop-color:rgb(168,191,189);stop-opacity:1"/></linearGradient>
        <linearGradient id="_Linear7" x1="0" y1="0" x2="1" y2="0" gradientUnits="userSpaceOnUse" gradientTransform="matrix(1,0,0,-1,0,0.00261867)"><stop offset="0" style="stop-color:rgb(214,225,226);stop-opacity:1"/><stop offset="0" style="stop-color:rgb(214,225,226);stop-opacity:1"/><stop offset="1" style="stop-color:rgb(168,191,189);stop-opacity:1"/></linearGradient>
        <linearGradient id="_Linear8" x1="0" y1="0" x2="1" y2="0" gradientUnits="userSpaceOnUse" gradientTransform="matrix(1,0,0,-1,0,0.00261867)"><stop offset="0" style="stop-color:rgb(214,225,226);stop-opacity:1"/><stop offset="0" style="stop-color:rgb(214,225,226);stop-opacity:1"/><stop offset="1" style="stop-color:rgb(168,191,189);stop-opacity:1"/></linearGradient>
        <linearGradient id="_Linear9" x1="0" y1="0" x2="1" y2="0" gradientUnits="userSpaceOnUse" gradientTransform="matrix(1,0,0,-1,0,0.00261866)"><stop offset="0" style="stop-color:rgb(214,225,226);stop-opacity:1"/><stop offset="0" style="stop-color:rgb(214,225,226);stop-opacity:1"/><stop offset="1" style="stop-color:rgb(168,191,189);stop-opacity:1"/></linearGradient>
        <linearGradient id="_Linear10" x1="0" y1="0" x2="1" y2="0" gradientUnits="userSpaceOnUse" gradientTransform="matrix(1,0,0,-1,0,0.00261859)"><stop offset="0" style="stop-color:rgb(214,225,226);stop-opacity:1"/><stop offset="0" style="stop-color:rgb(214,225,226);stop-opacity:1"/><stop offset="1" style="stop-color:rgb(168,191,189);stop-opacity:1"/></linearGradient>
        <linearGradient id="_Linear11" x1="0" y1="0" x2="1" y2="0" gradientUnits="userSpaceOnUse" gradientTransform="matrix(1,0,0,-1,0,0.00261849)"><stop offset="0" style="stop-color:rgb(214,225,226);stop-opacity:1"/><stop offset="0" style="stop-color:rgb(214,225,226);stop-opacity:1"/><stop offset="1" style="stop-color:rgb(168,191,189);stop-opacity:1"/></linearGradient>
        <linearGradient id="_Linear12" x1="0" y1="0" x2="1" y2="0" gradientUnits="userSpaceOnUse" gradientTransform="matrix(1,0,0,-1,0,0.00261855)"><stop offset="0" style="stop-color:rgb(214,225,226);stop-opacity:1"/><stop offset="0" style="stop-color:rgb(214,225,226);stop-opacity:1"/><stop offset="1" style="stop-color:rgb(168,191,189);stop-opacity:1"/></linearGradient>
        <linearGradient id="_Linear13" x1="0" y1="0" x2="1" y2="0" gradientUnits="userSpaceOnUse" gradientTransform="matrix(1,0,0,-1,0,0.00261857)"><stop offset="0" style="stop-color:rgb(214,225,226);stop-opacity:1"/><stop offset="0" style="stop-color:rgb(214,225,226);stop-opacity:1"/><stop offset="1" style="stop-color:rgb(168,191,189);stop-opacity:1"/></linearGradient>
        <linearGradient id="_Linear14" x1="0" y1="0" x2="1" y2="0" gradientUnits="userSpaceOnUse" gradientTransform="matrix(1,0,0,-1,0,0.00261867)"><stop offset="0" style="stop-color:rgb(214,225,226);stop-opacity:1"/><stop offset="0" style="stop-color:rgb(214,225,226);stop-opacity:1"/><stop offset="1" style="stop-color:rgb(168,191,189);stop-opacity:1"/></linearGradient>
        <linearGradient id="_Linear15" x1="0" y1="0" x2="1" y2="0" gradientUnits="userSpaceOnUse" gradientTransform="matrix(1,0,0,-1,0,0.00100364)"><stop offset="0" style="stop-color:white;stop-opacity:1"/><stop offset="0" style="stop-color:white;stop-opacity:1"/><stop offset="1" style="stop-color:rgb(221,230,230);stop-opacity:1"/><stop offset="1" style="stop-color:rgb(221,230,230);stop-opacity:1"/></linearGradient>
    </defs>
</svg>
